X: 58
T: No_153_The_Thunderbirds.krn
%%abc-version 2.0
%%abcx-abcm2ps-target-version 5.9.1 (29 Sep 2008)
%%abc-creator hum2abc beta
%%abcx-conversion-date 2020/08/10 18:54:57
%%gracespace 0 6 6
%%humdrum-veritas 3265758859
%%humdrum-veritas-data 2098902231
%%linebreak <none>
%%barnumbers 0
L: 1/8
M: 3/4
%%staves {1 2}
V: 1 clef=treble
V: 2 clef=bass
K: C
[V:1] G [I:setbarnb 1]| 
[V:2] z | 
[V:1] G2G7/E/ ||  
[V:2] G,,G,, G,,G,, G,,G,, ||  
[V:1] [M:2/4]E/EE/!fermata!E2 | 
[V:2] [M:2/4]z4 | 
[V:1] C/CC/ CA, | 
[V:2] z4 | 
[V:1] E/ED/E2 | 
[V:2] z4 | 
[V:1] E>D E/EE/ | 
[V:2] z4 | 
[V:1] C/CC/ CA, ||  
[V:2] z4 ||  
[V:1] [M:3/4]E/ED//E//E3C[K:clef=bass] ||  
[V:2] [M:3/4]z6 ||  
[V:1] [M:2/4]C2A,2 | 
[V:2] [M:2/4]z4 | 
[V:1] G,/G,G,/ G,E, ||  
[V:2] z4 ||  
[V:1] [M:3/4]C/CC/C2-C/D/C/A,/ ||  
[V:2] [M:3/4]z6 ||  
[V:1] [M:2/4]G,<G, E,D, ||  
[V:2] [M:2/4]z4 ||  
[V:1] [M:3/4]C,2C,3C, | 
[V:2] [M:3/4]z6 | 
[V:1] C,4C3/C/ | 
[V:2] z6 | 
[V:1] E2E>E E3/E/ | 
[V:2] z6 | 
[V:1] E/CC< CC< CG,/ | 
[V:2] z6 | 
[V:1] E/EE/E3C ||  
[V:2] z6 ||  
[V:1] [M:2/4]C2A,2 | 
[V:2] [M:2/4]z4 | 
[V:1] G,/G,G,/ G,E, ||  
[V:2] z4 ||  
[V:1] [M:3/4]C/CC/C3A, ||  
[V:2] [M:3/4]z6 ||  
[V:1] [M:2/4]G,<G, E,3/D,/ | 
[V:2] [M:2/4]z4 | 
[V:1] C,4 |]  
[V:2] z4 |]  


